X: 6
T: Harlequin Tune
%R: jig
B: Stewart "A Select Collection of Airs, Jigs, Marches and Reels", ca.1784, p.3 #6
F: http://imslp.org/wiki/A_Select_Collection_of_Airs,_Jigs,_Marches_and_Reels_%28Various%29
Z: 2017 John Chambers <jc:trillian.mit.edu>
M: 6/8
L: 1/8
K: G
B/c/ |\
dBd efg | dBG G2B/c/ | dBd ecB | AFD D2 B/c/ |\
dBd gab | afd def | geg fdf | ed^c d2 :|
|: f/g/ |\
afd gdB | ecA dBG | gfe dcB | AFD D2 B/c/ |\
dBd efg | dBG GAB | cac BgB | AGF G2 :|
